X:6010
T:Gan Ainm
R:jig
S:
H:
N:c's in bar 7 and 8 sharp or natural to taste
D:Milltown 1999 
Z:Adrian Scahill
M:6/8
L:1/8
K:D
A2D B2F|A2D FGA|d2e fdB|ecA fdB|\
ADD F2G|ABA fdc|d=cA G3|e=cA G3:||\
Ade f2g|afd =cAF|G=cA G2E|=cGE cGE|\
ABA f2g|afd d=cA|Gc/2B/2A GED|DFA d3:||\
DED D/2D/2ED|d3 =cAG|A,=CE G3|A,=CE GFE|\
DED D/2D/2ED|d2d =cAG|A,=CE GEE|EDC D3:||
